packages/vibrant-icons/assets/icons/Heart/Thin.svg

<svg width="24" height="24" viewBox="0 0 24 24" fill="none" xmlns="http://www.w3.org/2000/svg">
<path d="M2.51795 13.0539C1.27695 11.7599 0.613449 10.0509 0.651449 8.2439C0.688949 6.4369 1.42345 4.7574 2.71795 3.5159C3.97245 2.3129 5.62695 1.6499 7.37595 1.6499C9.12495 1.6499 10.6619 2.2639 11.8989 3.3794L11.9994 3.4699L12.0999 3.3794C13.3369 2.2639 14.9429 1.6499 16.6229 1.6499C18.3029 1.6499 20.0269 2.3124 21.2804 3.5159C22.5759 4.7574 23.3099 6.4369 23.3474 8.2439C23.3854 10.0509 22.7219 11.7599 21.4804 13.0549L11.9994 22.7844L2.51795 13.0539V13.0539ZM7.37645 3.3499C6.06745 3.3499 4.83095 3.8444 3.89445 4.7424C1.88695 6.6689 1.81995 9.8704 3.74545 11.8784L11.8919 20.2389L11.9994 20.3489L12.1069 20.2389L20.2639 11.8679C22.1839 9.8654 22.1119 6.6689 20.1044 4.7424C19.1674 3.8449 17.9309 3.3499 16.6229 3.3499C15.3149 3.3499 14.1624 3.8089 13.2384 4.6424L11.9994 5.7594L10.7604 4.6424C9.83645 3.8089 8.63395 3.3499 7.37595 3.3499H7.37645V3.3499Z" fill="#0C0C0C" />
</svg>

<svg xmlns="http://www.w3.org/2000/svg" width="24" height="24" fill="none"><path fill="#0C0C0C" d="M2.518 13.054A6.7 6.7 0 0 1 .65 8.244a6.7 6.7 0 0 1 2.067-4.728A6.7 6.7 0 0 1 7.376 1.65c1.749 0 3.286.614 4.523 1.73l.1.09.1-.09a6.74 6.74 0 0 1 4.524-1.73c1.68 0 3.404.662 4.657 1.866a6.7 6.7 0 0 1 2.067 4.728 6.7 6.7 0 0 1-1.867 4.81L12 22.785zM7.376 3.35a5 5 0 0 0-3.482 1.392 5.054 5.054 0 0 0-.149 7.136l8.147 8.36.107.11.108-.11 8.157-8.37c1.92-2.003 1.848-5.2-.16-7.126a5 5 0 0 0-3.481-1.392 4.95 4.95 0 0 0-3.385 1.292L12 5.76 10.76 4.642A5.04 5.04 0 0 0 7.376 3.35"/></svg>
